X: 147
T:Captain Thornton's() Quick March. JaW.147
M:6/8
L:1/8
Q:110
C:"James Winder,February 1st,1841"
S:James Winder Ms, Lancashire, 1835-41
R:March
O:England
A:Wyresdale,Lancashire
H:1/8
Z:vmp.Chris Partington, Aug 2004
K:F
c|c2f {g}f>ef|a2f {g}f>ef|{e}d^cd ded|g>ag {g}fed|!
c2f {g}f>ef|a2f {g}f>ef|{e}d^cd e<ge|e<ff f2:|!
|:c|cBA AGA|AGA Acf|BAG GFG|GFG G2c|!
f/g/af fef|g/a/bg gfg|cfa dbg|ceg f2:|]
